packages/components/icons/assets/Apartment.svg

<svg viewBox="0 0 24 24" xmlns="http://www.w3.org/2000/svg" data-title="Apartment" fill="currentColor" stroke="none">
  <path d="M5.25219 11.3247H10.2143C10.9045 11.3247 11.4648 10.7645 11.4648 10.0742 11.4648 9.38391 10.9045 8.82368 10.2143 8.82368H5.25219C4.5619 8.82368 4.00167 9.38391 4.00167 10.0742 4.00167 10.7645 4.5619 11.3247 5.25219 11.3247ZM5.25219 7.47311H10.2143C10.9045 7.47311 11.4648 6.91288 11.4648 6.22259 11.4648 5.53231 10.9045 4.97207 10.2143 4.97207H5.25219C4.5619 4.97207 4.00167 5.53231 4.00167 6.22259 4.00167 6.91288 4.5619 7.47311 5.25219 7.47311ZM11.4648 13.9358C11.4648 13.2455 10.9045 12.6853 10.2143 12.6853H5.25219C4.5619 12.6853 4.00167 13.2455 4.00167 13.9358 4.00167 14.6261 4.5619 15.1863 5.25219 15.1863H10.2143C10.9045 15.1863 11.4648 14.6261 11.4648 13.9358Z"/>
  <path d="M22.7595 9.92414H15.7466V1.25052C15.7466 0.560233 15.1863 0 14.496 0H1.25052C0.560233 0 0 0.560233 0 1.25052V22.7495C0 23.4398 0.560233 24 1.25052 24H14.486C15.1763 24 15.7366 23.4398 15.7366 22.7495V12.4252H21.499V22.7495C21.499 23.4398 22.0592 24 22.7495 24C23.4398 24 24 23.4398 24 22.7495V11.1747C24 10.4844 23.4398 9.92414 22.7495 9.92414H22.7595ZM7.87328 18.1976C7.18299 18.1976 6.62276 18.7578 6.62276 19.4481V21.499H2.51105V2.51105H13.2355V21.509H9.1238V19.4581C9.1238 18.7678 8.56357 18.2076 7.87328 18.2076V18.1976Z"/>
</svg>

<svg viewBox="0 0 24 24" xmlns="http://www.w3.org/2000/svg" data-title="Apartment" fill="currentColor" stroke="none">
  <path d="m5.25,11.32h4.96c.69,0,1.25-.56,1.25-1.25s-.56-1.25-1.25-1.25h-4.96c-.69,0-1.25.56-1.25,1.25s.56,1.25,1.25,1.25Zm0-3.85h4.96c.69,0,1.25-.56,1.25-1.25s-.56-1.25-1.25-1.25h-4.96c-.69,0-1.25.56-1.25,1.25s.56,1.25,1.25,1.25Zm6.21,6.46c0-.69-.56-1.25-1.25-1.25h-4.96c-.69,0-1.25.56-1.25,1.25s.56,1.25,1.25,1.25h4.96c.69,0,1.25-.56,1.25-1.25Z"/>
  <path d="m22.76,9.92h-7.01V1.25c0-.69-.56-1.25-1.25-1.25H1.25C.56,0,0,.56,0,1.25v21.5c0,.69.56,1.25,1.25,1.25h13.24c.69,0,1.25-.56,1.25-1.25v-10.32h5.76v10.32c0,.69.56,1.25,1.25,1.25s1.25-.56,1.25-1.25v-11.57c0-.69-.56-1.25-1.25-1.25h.01Zm-14.89,8.27c-.69,0-1.25.56-1.25,1.25v2.05H2.51V2.51h10.72v19h-4.11v-2.05c0-.69-.56-1.25-1.25-1.25h0Z"/>
</svg>
